#Title Timing test

; Fastest tempo
#Timer 64

@1 square

; Delay each channel
; Transpose each channel so they can easily be identified
A @1
B @1 _+1 r2
C @1 _+2 r2 r2
D @1 _+3 r2 r2 r2
E @1 _+4 r2 r2 r2 r2
F @1 _+5 r2 r2 r2 r2 r2

; Uses all channels to increase audio-driver usage
; Uses zero-volume vibrato notes to increase audio-driver usage
ABCDEF  L  MP80,2  v2 c4 r4   v0 d2 d2 d2 d2 d2

